src/assets/icons/support.svg

<svg width="50px" height="50px" viewBox="0 0 50 50" version="1.1" xmlns="http://www.w3.org/2000/svg" xmlns:xlink="http://www.w3.org/1999/xlink">
    <defs>
        <path d="M33.54875,21.1452632 L15.8715278,21.1452632 C14.60775,21.1452632 13.5815833,20.1084211 13.5815833,18.8347368 C13.5815833,17.5584211 14.60775,16.5215789 15.8715278,16.5215789 L33.54875,16.5215789 C34.8125278,16.5215789 35.8413056,17.5584211 35.8413056,18.8347368 C35.8413056,20.1084211 34.8125278,21.1452632 33.54875,21.1452632 M28.5301944,30.4268421 L15.8715278,30.4268421 C14.60775,30.4268421 13.5815833,29.3952632 13.5815833,28.1163158 C13.5815833,26.84 14.60775,25.8057895 15.8715278,25.8057895 L28.5301944,25.8057895 C29.7965833,25.8057895 30.82275,26.84 30.82275,28.1163158 C30.82275,29.3952632 29.7965833,30.4268421 28.5301944,30.4268421 M24.8406944,0.000526315789 C12.6703056,0.000526315789 2.76897222,9.94789474 2.76897222,22.1742105 C2.76897222,27.59 4.71947222,32.7110526 8.24708333,36.7531579 C7.14519444,38.3347368 2.27025,45.3426316 2.27025,45.3426316 C2.08747222,45.6084211 1.99869444,45.9110526 1.99869444,46.2136842 C1.99869444,46.54 2.10575,46.8663158 2.31202778,47.14 C2.71413889,47.6663158 3.41130556,47.8663158 4.03013889,47.64 C4.03013889,47.64 16.0360278,43.2242105 16.98125,42.8794737 C19.4905278,43.8373684 22.1251389,44.3478947 24.8406944,44.3478947 C37.0110833,44.3478947 46.9098056,34.3978947 46.9098056,22.1742105 C46.9098056,9.94789474 37.0110833,0.000526315789 24.8406944,0.000526315789" id="path-1"></path>
    </defs>
</svg>

<?xml version="1.0" encoding="utf-8"?>
<!-- Generator: Adobe Illustrator 22.0.1, SVG Export Plug-In . SVG Version: 6.00 Build 0)  -->
<svg version="1.1" id="Calque_1" xmlns="http://www.w3.org/2000/svg" xmlns:xlink="http://www.w3.org/1999/xlink" x="0px" y="0px"
	 viewBox="0 0 50 50" style="enable-background:new 0 0 50 50;" xml:space="preserve">
<style type="text/css">
	.st0{fill:#0088CE;}
</style>
<title>Icons/Interface/Support</title>
<desc>Created with Sketch.</desc>
<g id="Icons_x2F_Interface_x2F_Support">
	<g id="Fill-1">
		<path id="path-1_1_" class="st0" d="M33.5,21.1H15.9c-1.3,0-2.3-1-2.3-2.3c0-1.3,1-2.3,2.3-2.3h17.7c1.3,0,2.3,1,2.3,2.3
			C35.8,20.1,34.8,21.1,33.5,21.1 M28.5,30.4H15.9c-1.3,0-2.3-1-2.3-2.3c0-1.3,1-2.3,2.3-2.3h12.7c1.3,0,2.3,1,2.3,2.3
			C30.8,29.4,29.8,30.4,28.5,30.4 M24.8,0C12.7,0,2.8,9.9,2.8,22.2c0,5.4,2,10.5,5.5,14.6c-1.1,1.6-6,8.6-6,8.6
			C2.1,45.6,2,45.9,2,46.2c0,0.3,0.1,0.7,0.3,0.9c0.4,0.5,1.1,0.7,1.7,0.5c0,0,12-4.4,13-4.8c2.5,1,5.1,1.5,7.9,1.5
			c12.2,0,22.1-10,22.1-22.2C46.9,9.9,37,0,24.8,0"/>
	</g>
</g>
</svg>
